flaticon/wild-west/gun.svg

<svg xmlns="http://www.w3.org/2000/svg" width="32" height="32" viewBox="0 0 24 24">
    <path d="M 6.027344 15.382812 C 6.3125 14.574219 6.636719 13.652344 6.28125 12.691406 C 5.949219 11.796875 5.003906 11.015625 3.894531 11.324219 C 2.796875 11.636719 2.332031 12.980469 2.023438 13.867188 L 1.949219 14.078125 C 1.265625 16.011719 1.589844 18.835938 3.535156 20.265625 C 3.984375 20.597656 4.792969 21.191406 5.644531 21.191406 C 5.929688 21.191406 6.21875 21.125 6.5 20.957031 C 6.941406 20.695312 7.078125 20.335938 7.117188 20.085938 C 7.226562 19.34375 6.65625 18.542969 6.15625 17.996094 C 5.433594 17.210938 5.636719 16.492188 6.027344 15.382812 Z M 6.285156 19.960938 C 6.273438 20.035156 6.238281 20.132812 6.070312 20.234375 C 5.507812 20.566406 4.757812 20.121094 4.035156 19.589844 C 2.414062 18.398438 2.160156 16.003906 2.742188 14.355469 L 2.816406 14.144531 C 3.070312 13.421875 3.449219 12.328125 4.125 12.136719 C 4.722656 11.96875 5.289062 12.433594 5.492188 12.984375 C 5.742188 13.660156 5.496094 14.363281 5.234375 15.105469 C 4.859375 16.164062 4.433594 17.367188 5.535156 18.566406 C 6.035156 19.109375 6.328125 19.660156 6.285156 19.960938 Z M 6.285156 19.960938"/>
    <path d="M 23.679688 6.921875 C 23.867188 6.5625 23.976562 6.160156 23.996094 5.75 C 24.035156 4.964844 23.738281 4.195312 23.179688 3.636719 L 23.054688 3.511719 L 22.992188 3.511719 C 23.222656 2.785156 23.046875 1.96875 22.488281 1.410156 C 22.171875 1.097656 21.675781 1.046875 21.304688 1.292969 L 17.976562 3.511719 L 11.023438 3.511719 C 10.8125 3.511719 10.609375 3.519531 10.414062 3.539062 C 10.082031 2.726562 9.964844 2.511719 9.890625 2.414062 C 9.636719 2.074219 9.25 1.863281 8.828125 1.832031 C 8.40625 1.804688 7.992188 1.957031 7.691406 2.257812 L 5.890625 4.058594 L 5.890625 6.386719 C 5.652344 6.578125 5.34375 6.835938 4.992188 7.152344 L 5.457031 5.296875 L 5.46875 5.195312 C 5.46875 4.5 4.902344 3.933594 4.207031 3.933594 L 1.679688 3.933594 C 0.984375 3.933594 0.417969 4.5 0.417969 5.199219 C 0.417969 5.535156 0.550781 5.851562 0.789062 6.089844 C 1.027344 6.328125 1.34375 6.457031 1.679688 6.457031 C 1.679688 6.457031 1.679688 6.457031 1.683594 6.457031 C 1.792969 6.457031 1.898438 6.503906 1.976562 6.582031 C 2.058594 6.660156 2.101562 6.765625 2.101562 6.878906 L 2.101562 7.996094 C 1.015625 9.410156 0.417969 11.160156 0.417969 12.941406 L 0.417969 13.652344 C -0.238281 15.683594 -0.125 17.644531 0.773438 19.503906 C 2.199219 22.324219 4.3125 22.863281 5.714844 22.863281 C 6.433594 22.863281 6.964844 22.722656 7.128906 22.675781 C 7.347656 22.644531 8.183594 22.480469 8.632812 21.699219 C 9.089844 20.890625 8.964844 19.746094 8.25 18.273438 C 8.191406 18.15625 6.75 15.414062 8.9375 14.207031 C 9.613281 13.804688 10.710938 14.691406 11.507812 15.65625 C 11.835938 16.054688 12.355469 16.226562 12.863281 16.101562 C 13.414062 15.96875 13.820312 15.464844 13.875 14.875 L 15.15625 14.875 L 15.15625 11.089844 L 22.519531 11.089844 C 23.121094 11.089844 23.300781 10.9375 23.613281 10.40625 C 24.1875 9.433594 24.113281 8.199219 23.4375 7.300781 C 23.527344 7.179688 23.609375 7.054688 23.679688 6.921875 Z M 21.773438 1.992188 C 21.808594 1.96875 21.859375 1.972656 21.890625 2.003906 C 22.292969 2.40625 22.367188 3.027344 22.082031 3.511719 L 19.492188 3.511719 Z M 12.210938 4.355469 C 12.210938 4.585938 12.398438 4.777344 12.628906 4.777344 C 12.863281 4.777344 13.050781 4.585938 13.050781 4.355469 L 13.894531 4.355469 C 13.894531 4.585938 14.082031 4.777344 14.3125 4.777344 C 14.546875 4.777344 14.734375 4.585938 14.734375 4.355469 L 15.578125 4.355469 C 15.578125 4.585938 15.765625 4.777344 15.996094 4.777344 C 16.230469 4.777344 16.417969 4.585938 16.417969 4.355469 L 17.261719 4.355469 C 17.261719 4.585938 17.449219 4.777344 17.679688 4.777344 C 17.914062 4.777344 18.101562 4.585938 18.101562 4.355469 L 18.945312 4.355469 C 18.945312 4.585938 19.132812 4.777344 19.363281 4.777344 C 19.597656 4.777344 19.785156 4.585938 19.785156 4.355469 L 20.628906 4.355469 C 20.628906 4.585938 20.816406 4.777344 21.046875 4.777344 C 21.28125 4.777344 21.46875 4.585938 21.46875 4.355469 L 22.3125 4.355469 C 22.3125 4.585938 22.5 4.777344 22.730469 4.777344 C 22.804688 4.777344 22.871094 4.75 22.933594 4.71875 C 23.089844 5.023438 23.171875 5.363281 23.15625 5.710938 C 23.140625 5.996094 23.066406 6.277344 22.933594 6.527344 C 22.871094 6.644531 22.800781 6.753906 22.71875 6.855469 L 22.695312 6.878906 L 8.492188 6.878906 C 8.445312 6.664062 8.433594 6.441406 8.464844 6.214844 C 8.53125 6.359375 8.675781 6.457031 8.84375 6.457031 C 9.074219 6.457031 9.261719 6.269531 9.261719 6.039062 C 9.261719 5.804688 9.074219 5.617188 8.84375 5.617188 C 8.753906 5.617188 8.675781 5.652344 8.605469 5.699219 C 8.664062 5.5625 8.738281 5.433594 8.824219 5.308594 C 8.871094 5.246094 8.917969 5.183594 8.96875 5.128906 C 8.984375 5.109375 9.003906 5.09375 9.015625 5.078125 C 9.167969 4.921875 9.335938 4.785156 9.515625 4.675781 C 9.824219 4.488281 10.152344 4.40625 10.53125 4.375 C 10.539062 4.597656 10.722656 4.777344 10.945312 4.777344 C 11.179688 4.777344 11.367188 4.585938 11.367188 4.355469 Z M 6.730469 4.40625 L 8.285156 2.851562 C 8.414062 2.722656 8.585938 2.660156 8.765625 2.671875 C 8.949219 2.683594 9.109375 2.773438 9.214844 2.914062 C 9.234375 2.945312 9.316406 3.085938 9.570312 3.707031 C 9.519531 3.726562 9.46875 3.757812 9.414062 3.78125 C 9.347656 3.8125 9.277344 3.84375 9.207031 3.882812 C 9.195312 3.886719 9.183594 3.894531 9.171875 3.902344 C 9.121094 3.929688 9.074219 3.953125 9.027344 3.984375 C 8.71875 4.179688 8.453125 4.421875 8.234375 4.699219 C 8.199219 4.746094 8.164062 4.792969 8.128906 4.839844 C 8.109375 4.863281 8.09375 4.890625 8.078125 4.917969 C 7.773438 5.359375 7.574219 5.882812 7.574219 6.457031 C 7.574219 7.015625 7.753906 7.527344 8.039062 7.964844 C 8.042969 7.972656 8.050781 7.976562 8.054688 7.984375 C 8.101562 8.054688 8.148438 8.121094 8.203125 8.1875 C 8.207031 8.195312 8.214844 8.207031 8.21875 8.214844 C 8.230469 8.226562 8.246094 8.242188 8.257812 8.253906 C 8.296875 8.300781 8.335938 8.347656 8.378906 8.394531 C 8.40625 8.421875 8.4375 8.453125 8.464844 8.484375 C 8.5 8.515625 8.53125 8.550781 8.566406 8.582031 C 8.613281 8.625 8.660156 8.660156 8.707031 8.699219 C 8.726562 8.71875 8.75 8.738281 8.773438 8.753906 C 8.835938 8.804688 8.902344 8.851562 8.96875 8.894531 C 8.976562 8.902344 8.984375 8.90625 8.992188 8.914062 C 9.226562 9.066406 9.480469 9.191406 9.738281 9.273438 C 9.738281 9.273438 9.738281 9.273438 9.742188 9.273438 C 9.816406 9.300781 9.894531 9.320312 9.96875 9.335938 C 9.980469 9.339844 9.992188 9.34375 10.003906 9.347656 C 10.011719 9.347656 10.019531 9.351562 10.027344 9.351562 C 10.078125 9.363281 10.125 9.367188 10.175781 9.375 C 10.207031 9.378906 10.242188 9.386719 10.273438 9.390625 C 10.5625 9.421875 10.847656 9.417969 11.128906 9.410156 C 11.226562 9.40625 11.328125 9.40625 11.421875 9.40625 L 12.1875 9.40625 C 12.261719 9.410156 12.339844 9.414062 12.40625 9.433594 C 12.425781 9.4375 12.449219 9.445312 12.472656 9.453125 C 12.5 9.460938 12.53125 9.472656 12.558594 9.488281 C 12.578125 9.496094 12.597656 9.507812 12.617188 9.519531 C 12.648438 9.535156 12.679688 9.558594 12.710938 9.578125 C 12.71875 9.585938 12.730469 9.597656 12.742188 9.605469 C 12.820312 9.675781 12.890625 9.757812 12.941406 9.859375 C 13.050781 10.066406 13.066406 10.308594 12.992188 10.523438 C 12.90625 10.761719 12.722656 10.949219 12.484375 11.035156 L 12.453125 11.046875 C 12.371094 11.070312 12.289062 11.089844 12.203125 11.089844 L 9.625 11.089844 C 9.4375 10.363281 8.777344 9.824219 7.992188 9.824219 C 7.492188 9.824219 7.039062 10.046875 6.730469 10.402344 Z M 7.164062 11.421875 C 7.207031 10.992188 7.566406 10.667969 7.992188 10.667969 C 8.457031 10.667969 8.835938 11.046875 8.835938 11.511719 C 8.835938 11.972656 8.457031 12.351562 7.992188 12.351562 C 7.53125 12.351562 7.15625 11.976562 7.15625 11.480469 Z M 1.417969 11.445312 C 1.652344 10.339844 2.140625 9.292969 2.851562 8.40625 L 2.941406 8.289062 L 2.941406 6.878906 C 2.941406 6.542969 2.8125 6.222656 2.574219 5.984375 C 2.335938 5.75 2.019531 5.617188 1.683594 5.617188 C 1.679688 5.617188 1.679688 5.617188 1.679688 5.617188 C 1.566406 5.617188 1.460938 5.574219 1.382812 5.496094 C 1.304688 5.414062 1.257812 5.308594 1.257812 5.195312 C 1.257812 4.964844 1.449219 4.777344 1.679688 4.777344 L 4.207031 4.777344 C 4.421875 4.777344 4.601562 4.941406 4.625 5.152344 L 3.84375 8.269531 C 3.839844 8.277344 3.835938 8.28125 3.828125 8.289062 C 3.605469 8.519531 3.382812 8.769531 3.15625 9.03125 C 3.128906 9.058594 3.105469 9.089844 3.082031 9.121094 C 2.894531 9.339844 2.707031 9.566406 2.523438 9.804688 C 2.488281 9.847656 2.457031 9.890625 2.425781 9.933594 C 2.257812 10.15625 2.09375 10.382812 1.933594 10.617188 C 1.914062 10.648438 1.894531 10.679688 1.875 10.710938 C 1.804688 10.816406 1.734375 10.921875 1.667969 11.027344 C 1.601562 11.136719 1.539062 11.246094 1.472656 11.351562 C 1.457031 11.382812 1.433594 11.414062 1.417969 11.445312 Z M 12.664062 15.28125 C 12.46875 15.332031 12.277344 15.265625 12.15625 15.121094 C 11.367188 14.167969 9.847656 12.6875 8.519531 13.476562 C 6.191406 14.757812 6.84375 17.4375 7.503906 18.65625 C 8.070312 19.828125 8.210938 20.730469 7.90625 21.273438 C 7.621094 21.777344 7.027344 21.839844 7.003906 21.84375 L 6.902344 21.863281 C 6.761719 21.914062 3.480469 22.992188 1.527344 19.132812 C 1.144531 18.339844 0.457031 16.378906 1.273438 13.773438 C 1.972656 11.710938 3.425781 9.917969 4.53125 8.773438 L 4.609375 8.691406 L 4.621094 8.640625 C 5.007812 8.253906 5.425781 7.867188 5.890625 7.476562 L 5.890625 10.617188 C 5.890625 10.722656 5.90625 10.824219 5.929688 10.925781 C 5.9375 10.957031 5.949219 10.984375 5.957031 11.015625 C 5.980469 11.082031 6.007812 11.148438 6.039062 11.210938 C 6.054688 11.242188 6.070312 11.273438 6.089844 11.304688 C 6.128906 11.363281 6.171875 11.417969 6.21875 11.472656 C 6.238281 11.496094 6.257812 11.523438 6.285156 11.546875 C 6.292969 11.554688 6.300781 11.566406 6.3125 11.578125 C 6.347656 12.472656 7.089844 13.191406 7.992188 13.191406 C 8.777344 13.191406 9.4375 12.65625 9.625 11.929688 L 12.203125 11.929688 C 12.292969 11.929688 12.382812 11.949219 12.464844 11.976562 L 12.488281 11.984375 C 12.730469 12.074219 12.914062 12.265625 12.996094 12.5 C 13 12.515625 13.003906 12.527344 13.007812 12.539062 C 13.03125 12.613281 13.042969 12.691406 13.042969 12.773438 L 13.042969 14.742188 C 13.042969 15.003906 12.882812 15.230469 12.664062 15.28125 Z M 14.316406 14.035156 L 13.886719 14.035156 L 13.886719 12.773438 C 13.886719 12.652344 13.871094 12.53125 13.847656 12.417969 C 13.84375 12.398438 13.835938 12.378906 13.828125 12.359375 C 13.804688 12.265625 13.773438 12.171875 13.734375 12.085938 C 13.726562 12.066406 13.714844 12.046875 13.707031 12.03125 C 13.664062 11.945312 13.617188 11.863281 13.558594 11.785156 C 13.546875 11.765625 13.53125 11.75 13.515625 11.730469 C 13.457031 11.660156 13.394531 11.589844 13.328125 11.527344 C 13.320312 11.523438 13.316406 11.515625 13.308594 11.507812 C 13.3125 11.503906 13.316406 11.5 13.324219 11.492188 C 13.375 11.445312 13.425781 11.394531 13.472656 11.339844 C 13.488281 11.320312 13.503906 11.304688 13.519531 11.285156 C 13.5625 11.226562 13.605469 11.167969 13.644531 11.105469 C 13.648438 11.097656 13.652344 11.09375 13.65625 11.089844 L 14.316406 11.089844 Z M 21.46875 10.246094 C 21.46875 10.015625 21.28125 9.824219 21.046875 9.824219 C 20.816406 9.824219 20.628906 10.015625 20.628906 10.246094 L 19.785156 10.246094 C 19.785156 10.015625 19.597656 9.824219 19.363281 9.824219 C 19.132812 9.824219 18.945312 10.015625 18.945312 10.246094 L 18.101562 10.246094 C 18.101562 10.015625 17.914062 9.824219 17.679688 9.824219 C 17.449219 9.824219 17.261719 10.015625 17.261719 10.246094 L 16.417969 10.246094 C 16.417969 10.015625 16.230469 9.824219 15.996094 9.824219 C 15.765625 9.824219 15.578125 10.015625 15.578125 10.246094 L 14.734375 10.246094 C 14.734375 10.015625 14.546875 9.824219 14.3125 9.824219 C 14.082031 9.824219 13.894531 10.015625 13.894531 10.246094 L 13.886719 10.246094 C 13.886719 9.96875 13.8125 9.714844 13.695312 9.484375 C 13.691406 9.480469 13.691406 9.476562 13.691406 9.472656 C 13.6875 9.464844 13.683594 9.460938 13.679688 9.453125 C 13.632812 9.367188 13.578125 9.285156 13.515625 9.207031 C 13.5 9.1875 13.488281 9.171875 13.476562 9.15625 C 13.417969 9.089844 13.359375 9.03125 13.292969 8.972656 C 13.269531 8.953125 13.242188 8.933594 13.21875 8.914062 C 13.160156 8.867188 13.097656 8.828125 13.03125 8.789062 C 12.996094 8.769531 12.960938 8.75 12.921875 8.730469 C 12.863281 8.703125 12.800781 8.679688 12.738281 8.660156 C 12.707031 8.648438 12.679688 8.632812 12.648438 8.625 C 12.625 8.617188 12.601562 8.613281 12.582031 8.609375 C 12.554688 8.601562 12.527344 8.597656 12.5 8.59375 C 12.230469 8.542969 11.957031 8.546875 11.710938 8.558594 C 11.609375 8.558594 11.511719 8.5625 11.414062 8.5625 L 10.519531 8.5625 C 10.46875 8.5625 10.421875 8.558594 10.371094 8.554688 C 10.332031 8.550781 10.296875 8.542969 10.257812 8.539062 C 10.234375 8.53125 10.210938 8.53125 10.1875 8.523438 C 10.082031 8.5 9.980469 8.46875 9.878906 8.429688 C 9.851562 8.417969 9.828125 8.410156 9.804688 8.398438 C 9.71875 8.363281 9.636719 8.316406 9.554688 8.265625 C 9.515625 8.246094 9.476562 8.222656 9.4375 8.195312 C 9.367188 8.148438 9.296875 8.09375 9.230469 8.039062 C 9.191406 8.007812 9.15625 7.976562 9.117188 7.941406 C 9.050781 7.878906 8.988281 7.8125 8.929688 7.742188 C 8.921875 7.734375 8.917969 7.726562 8.910156 7.722656 L 22.695312 7.722656 L 22.71875 7.746094 C 23.203125 8.34375 23.285156 9.203125 22.933594 9.882812 C 22.871094 9.851562 22.804688 9.824219 22.730469 9.824219 C 22.5 9.824219 22.3125 10.015625 22.3125 10.246094 Z M 21.46875 10.246094"/>
    <path d="M5.046875 14.035156C5.046875 14.5 4.671875 14.875 4.207031 14.875 3.742188 14.875 3.363281 14.5 3.363281 14.035156 3.363281 13.570312 3.742188 13.191406 4.207031 13.191406 4.671875 13.191406 5.046875 13.570312 5.046875 14.035156zM12.210938 5.195312C12.210938 5.429688 12.019531 5.617188 11.789062 5.617188 11.554688 5.617188 11.367188 5.429688 11.367188 5.195312 11.367188 4.964844 11.554688 4.777344 11.789062 4.777344 12.019531 4.777344 12.210938 4.964844 12.210938 5.195312zM10.527344 5.195312C10.527344 5.429688 10.335938 5.617188 10.105469 5.617188 9.871094 5.617188 9.683594 5.429688 9.683594 5.195312 9.683594 4.964844 9.871094 4.777344 10.105469 4.777344 10.335938 4.777344 10.527344 4.964844 10.527344 5.195312zM13.894531 5.195312C13.894531 5.429688 13.703125 5.617188 13.472656 5.617188 13.238281 5.617188 13.050781 5.429688 13.050781 5.195312 13.050781 4.964844 13.238281 4.777344 13.472656 4.777344 13.703125 4.777344 13.894531 4.964844 13.894531 5.195312zM15.578125 5.195312C15.578125 5.429688 15.386719 5.617188 15.15625 5.617188 14.921875 5.617188 14.734375 5.429688 14.734375 5.195312 14.734375 4.964844 14.921875 4.777344 15.15625 4.777344 15.386719 4.777344 15.578125 4.964844 15.578125 5.195312zM17.261719 5.195312C17.261719 5.429688 17.070312 5.617188 16.839844 5.617188 16.605469 5.617188 16.417969 5.429688 16.417969 5.195312 16.417969 4.964844 16.605469 4.777344 16.839844 4.777344 17.070312 4.777344 17.261719 4.964844 17.261719 5.195312zM18.945312 5.195312C18.945312 5.429688 18.753906 5.617188 18.523438 5.617188 18.289062 5.617188 18.101562 5.429688 18.101562 5.195312 18.101562 4.964844 18.289062 4.777344 18.523438 4.777344 18.753906 4.777344 18.945312 4.964844 18.945312 5.195312zM20.628906 5.195312C20.628906 5.429688 20.4375 5.617188 20.207031 5.617188 19.972656 5.617188 19.785156 5.429688 19.785156 5.195312 19.785156 4.964844 19.972656 4.777344 20.207031 4.777344 20.4375 4.777344 20.628906 4.964844 20.628906 5.195312zM20.628906 9.40625C20.628906 9.636719 20.4375 9.824219 20.207031 9.824219 19.972656 9.824219 19.785156 9.636719 19.785156 9.40625 19.785156 9.171875 19.972656 8.984375 20.207031 8.984375 20.4375 8.984375 20.628906 9.171875 20.628906 9.40625zM22.3125 9.40625C22.3125 9.636719 22.121094 9.824219 21.890625 9.824219 21.65625 9.824219 21.46875 9.636719 21.46875 9.40625 21.46875 9.171875 21.65625 8.984375 21.890625 8.984375 22.121094 8.984375 22.3125 9.171875 22.3125 9.40625zM18.945312 9.40625C18.945312 9.636719 18.753906 9.824219 18.523438 9.824219 18.289062 9.824219 18.101562 9.636719 18.101562 9.40625 18.101562 9.171875 18.289062 8.984375 18.523438 8.984375 18.753906 8.984375 18.945312 9.171875 18.945312 9.40625zM17.261719 9.40625C17.261719 9.636719 17.070312 9.824219 16.839844 9.824219 16.605469 9.824219 16.417969 9.636719 16.417969 9.40625 16.417969 9.171875 16.605469 8.984375 16.839844 8.984375 17.070312 8.984375 17.261719 9.171875 17.261719 9.40625zM15.578125 9.40625C15.578125 9.636719 15.386719 9.824219 15.15625 9.824219 14.921875 9.824219 14.734375 9.636719 14.734375 9.40625 14.734375 9.171875 14.921875 8.984375 15.15625 8.984375 15.386719 8.984375 15.578125 9.171875 15.578125 9.40625zM22.3125 5.195312C22.3125 5.429688 22.121094 5.617188 21.890625 5.617188 21.65625 5.617188 21.46875 5.429688 21.46875 5.195312 21.46875 4.964844 21.65625 4.777344 21.890625 4.777344 22.121094 4.777344 22.3125 4.964844 22.3125 5.195312zM22.3125 5.195312"/>
</svg>

<svg xmlns="http://www.w3.org/2000/svg" width="32" height="32" viewBox="0 0 24 24">
    <path d="M6.027 15.383c.285-.809.61-1.73.254-2.692-.332-.894-1.277-1.675-2.386-1.367-1.098.313-1.563 1.656-1.872 2.543l-.074.211c-.683 1.934-.36 4.758 1.586 6.188.45.332 1.258.925 2.11.925.285 0 .574-.066.855-.234.441-.262.578-.621.617-.871.11-.742-.46-1.543-.96-2.09-.723-.785-.52-1.504-.13-2.613zm.258 4.578c-.012.074-.047.172-.215.273-.562.332-1.312-.113-2.035-.644-1.62-1.192-1.875-3.586-1.293-5.235l.074-.21c.254-.723.633-1.817 1.309-2.008.598-.168 1.164.297 1.367.847.25.676.004 1.38-.258 2.121-.375 1.06-.8 2.262.301 3.461.5.543.793 1.094.75 1.395zm0 0"/>
    <path d="M23.68 6.922c.187-.36.297-.762.316-1.172a2.797 2.797 0 0 0-.816-2.113l-.125-.125h-.063a2.082 2.082 0 0 0-.504-2.102.945.945 0 0 0-1.183-.117l-3.328 2.219h-6.954c-.21 0-.414.008-.609.027-.332-.812-.45-1.027-.523-1.125a1.458 1.458 0 0 0-2.2-.156l-1.8 1.8v2.329a21.2 21.2 0 0 0-.899.765l.465-1.855.012-.102c0-.695-.567-1.261-1.262-1.261H1.68A1.264 1.264 0 0 0 .79 6.09c.237.238.554.367.89.367h.004c.109 0 .214.047.293.125a.404.404 0 0 1 .125.297v1.117a8.15 8.15 0 0 0-1.684 4.945v.711c-.656 2.032-.543 3.993.355 5.852 1.426 2.82 3.54 3.36 4.942 3.36.719 0 1.25-.141 1.414-.188.219-.031 1.055-.196 1.504-.977.457-.808.332-1.953-.383-3.426-.059-.117-1.5-2.859.688-4.066.675-.402 1.773.484 2.57 1.45.328.398.847.57 1.355.445.551-.133.957-.637 1.012-1.227h1.281V11.09h7.364c.601 0 .78-.152 1.093-.684a2.81 2.81 0 0 0-.175-3.105c.09-.121.171-.246.242-.38zm-1.907-4.93a.095.095 0 0 1 .118.012c.402.402.476 1.023.191 1.508h-2.59zm-9.562 2.363c0 .23.187.422.418.422a.423.423 0 0 0 .422-.422h.844c0 .23.187.422.418.422a.423.423 0 0 0 .421-.422h.844c0 .23.188.422.418.422a.423.423 0 0 0 .422-.422h.844c0 .23.187.422.418.422a.423.423 0 0 0 .422-.422h.843c0 .23.188.422.418.422a.423.423 0 0 0 .422-.422h.844c0 .23.187.422.418.422a.423.423 0 0 0 .422-.422h.843c0 .23.188.422.418.422.075 0 .141-.027.204-.058.156.304.238.644.222.992a1.975 1.975 0 0 1-.437 1.144l-.024.024H8.492a1.89 1.89 0 0 1-.027-.664.418.418 0 0 0 .797-.176.42.42 0 0 0-.418-.422.427.427 0 0 0-.239.082c.06-.136.133-.265.22-.39.046-.063.093-.125.144-.18.015-.02.035-.035.047-.05.152-.157.32-.294.5-.403.308-.188.636-.27 1.015-.301a.417.417 0 0 0 .836-.02zm-5.48.051l1.554-1.554a.615.615 0 0 1 .48-.18.605.605 0 0 1 .45.242c.02.031.101.172.355.793-.05.02-.101.05-.156.074-.066.031-.137.063-.207.102a.158.158 0 0 0-.035.02c-.05.027-.098.05-.145.081a3.16 3.16 0 0 0-.793.715l-.105.14c-.02.024-.035.052-.05.079a2.704 2.704 0 0 0-.505 1.539c0 .559.18 1.07.465 1.508.004.008.012.012.016.02.047.07.093.136.148.202l.016.028.039.039a3.88 3.88 0 0 0 .207.23c.035.032.066.067.101.098.047.043.094.078.141.117a2.24 2.24 0 0 0 .262.195l.023.02c.235.152.488.277.746.36h.004c.074.027.153.046.227.062l.035.012c.008 0 .016.004.023.004.051.011.098.015.149.023.031.004.066.012.097.016.29.03.575.027.856.02.098-.005.2-.005.293-.005h.765c.075.004.153.008.22.028.019.004.042.011.066.02.027.007.058.019.086.034.02.008.039.02.058.032.031.015.063.039.094.058a.858.858 0 0 1 .281.945.845.845 0 0 1-.508.512l-.03.012a.907.907 0 0 1-.25.043H9.624a1.689 1.689 0 0 0-1.633-1.266c-.5 0-.953.223-1.262.578zm.433 7.016a.834.834 0 0 1 .828-.754c.465 0 .844.379.844.844 0 .46-.379.84-.844.84-.46 0-.836-.375-.836-.872zm-5.746.023a7.276 7.276 0 0 1 1.434-3.039l.09-.117V6.88c0-.336-.13-.656-.368-.895a1.266 1.266 0 0 0-.89-.367H1.68a.416.416 0 0 1-.297-.12.436.436 0 0 1-.125-.302c0-.23.191-.418.422-.418h2.527c.215 0 .395.164.418.375L3.844 8.27a18.478 18.478 0 0 0-.688.762c-.027.027-.05.058-.074.09a16.887 16.887 0 0 0-1.148 1.495l-.059.094c-.07.105-.14.21-.207.316-.066.11-.129.22-.195.325-.016.03-.04.062-.055.093zm11.246 3.836a.492.492 0 0 1-.508-.16c-.789-.953-2.308-2.434-3.636-1.644-2.329 1.28-1.676 3.96-1.016 5.18.566 1.171.707 2.073.402 2.616-.285.504-.879.567-.902.57l-.102.02c-.14.051-3.422 1.13-5.375-2.73-.382-.793-1.07-2.754-.254-5.36.7-2.062 2.153-3.855 3.258-5l.078-.082.012-.05c.387-.387.805-.774 1.27-1.164v3.14c0 .106.015.207.039.309.008.031.02.058.027.09.023.066.05.132.082.195.016.031.031.062.05.094.04.058.083.113.13.168.02.023.039.05.066.074.008.008.016.02.027.031a1.685 1.685 0 0 0 3.313.352h2.578c.09 0 .18.02.262.047l.023.007a.85.85 0 0 1 .555.79v1.968c0 .262-.16.488-.379.54zm1.652-1.246h-.43v-1.262a1.77 1.77 0 0 0-.038-.355.344.344 0 0 0-.02-.059 1.612 1.612 0 0 0-.094-.273c-.007-.02-.02-.04-.027-.055a1.584 1.584 0 0 0-.148-.246c-.012-.02-.028-.035-.043-.055a2.31 2.31 0 0 0-.188-.203c-.008-.004-.012-.011-.02-.02.005-.003.008-.007.016-.015a1.83 1.83 0 0 0 .149-.152c.015-.02.03-.035.047-.055.043-.058.085-.117.125-.18a.054.054 0 0 1 .011-.015h.66zm7.153-3.789a.423.423 0 0 0-.422-.422.422.422 0 0 0-.418.422h-.844a.423.423 0 0 0-.422-.422.422.422 0 0 0-.418.422h-.843a.423.423 0 0 0-.422-.422.422.422 0 0 0-.418.422h-.844a.423.423 0 0 0-.422-.422.422.422 0 0 0-.418.422h-.844a.423.423 0 0 0-.421-.422.422.422 0 0 0-.418.422h-.008c0-.277-.075-.531-.192-.762-.004-.004-.004-.007-.004-.011l-.011-.02a1.685 1.685 0 0 0-.164-.246l-.04-.05a2.036 2.036 0 0 0-.183-.184c-.023-.02-.05-.04-.074-.059a1.565 1.565 0 0 0-.188-.125 1.484 1.484 0 0 0-.293-.129c-.031-.012-.058-.027-.09-.035-.023-.008-.046-.012-.066-.016-.027-.007-.055-.011-.082-.015a3.397 3.397 0 0 0-.79-.035c-.1 0-.198.004-.296.004h-.894c-.051 0-.098-.004-.149-.008-.039-.004-.074-.012-.113-.016-.024-.008-.047-.008-.07-.016a2.159 2.159 0 0 1-.31-.093c-.026-.012-.05-.02-.073-.032a1.712 1.712 0 0 1-.25-.132.93.93 0 0 1-.117-.07 2.612 2.612 0 0 1-.508-.454c-.008-.008-.012-.015-.02-.02h13.785l.024.024c.484.598.566 1.457.215 2.137a.454.454 0 0 0-.204-.059.422.422 0 0 0-.418.422zm0 0"/>
    <path d="M5.047 14.035a.842.842 0 1 1-.84-.844c.465 0 .84.38.84.844zm0 0M12.21 5.195a.423.423 0 0 1-.843 0 .422.422 0 1 1 .844 0zm0 0M10.527 5.195a.423.423 0 0 1-.843 0 .422.422 0 1 1 .844 0zm0 0M13.895 5.195a.423.423 0 0 1-.844 0 .422.422 0 1 1 .844 0zm0 0M15.578 5.195a.423.423 0 0 1-.844 0 .422.422 0 1 1 .844 0zm0 0M17.262 5.195a.423.423 0 0 1-.844 0 .422.422 0 1 1 .844 0zm0 0M18.945 5.195a.423.423 0 0 1-.843 0 .422.422 0 1 1 .844 0zm0 0M20.629 5.195a.423.423 0 0 1-.844 0 .422.422 0 1 1 .844 0zm0 0M20.629 9.406a.422.422 0 0 1-.844 0 .423.423 0 0 1 .844 0zm0 0M22.313 9.406a.422.422 0 0 1-.844 0 .423.423 0 0 1 .844 0zm0 0M18.945 9.406a.422.422 0 0 1-.843 0 .423.423 0 0 1 .844 0zm0 0M17.262 9.406a.422.422 0 0 1-.844 0 .423.423 0 0 1 .844 0zm0 0M15.578 9.406a.422.422 0 0 1-.844 0 .423.423 0 0 1 .844 0zm0 0M22.313 5.195a.423.423 0 0 1-.844 0 .422.422 0 1 1 .844 0zm0 0"/>
</svg>
